X:1
T:Villikins and his Dinah
M:3/4
L:1/4
K:C
C/2-C/2| C E G| G F E/2E/2| D C C| C2 C| C E G| c c c| B/2B/2 G G|\
 G2 G| c c c| B G E| F G A| G2 C/2D/2| E E E| G F E| D C C| C2 C/2D/2|\
 E E E| G F E| D C B,| C2||
